X:7
T:7. Interlude 
N:from lieuxc_musique7.mid
Z:Eric Forgeot - http://anamnese.online.fr
M:4/4
L:1/8
Q:1/4=120
K:Ab % 4 flats
V:1
F2 =A2 G2 G2 |_A4 A2 =B2 | A2 G2 _B2 =E2- |=E2 C3-C/2 G/2 F2-|
F3/2 A/2 =E3-=E/2 =A/2 _A2- | A3/2 =A/2 =A4 =B2 |c2 =d2 _e4 |_A4 c4 |
E4 A4 | F8 |
V:2
F,6 C,2 |_D,4 =E,4 |D,4 G,4- |G,2 A,6-|
A,6 F,2- |F,2 =A,4 |


